brandFactory_export/2.Regular/Añadir bloque consulta_2Regular.svg

<?xml version="1.0" encoding="UTF-8"?>
<svg width="24px" height="24px" viewBox="0 0 24 24" version="1.1" xmlns="http://www.w3.org/2000/svg" xmlns:xlink="http://www.w3.org/1999/xlink">
    <title>2.Regular/Añadir bloque consulta_2Regular</title>
    <g id="Symbols" stroke="none" stroke-width="1" fill="none" fill-rule="evenodd">
        <g id="2.Regular/Añadir-bloque-consulta_2Regular" fill="#5CB615" fill-rule="nonzero">
            <path d="M7.84537815,17.4252101 C7.84537815,17.8252101 7.51932773,18.1512605 7.11596639,18.1512605 C6.71260504,18.1512605 6.38655462,17.8252101 6.38655462,17.4252101 L6.38655462,14.6218487 L3.57310924,14.6218487 C3.1697479,14.6218487 2.84369748,14.2957983 2.84369748,13.8957983 C2.84369748,13.4957983 3.1697479,13.1697479 3.57310924,13.1697479 L6.38655462,13.1697479 L6.38655462,10.4067227 C6.38655462,10.0067227 6.71260504,9.68067227 7.11596639,9.68067227 C7.51932773,9.68067227 7.84537815,10.0067227 7.84537815,10.4067227 L7.84537815,13.1697479 L10.6655462,13.1697479 C11.0689076,13.1697479 11.394958,13.4957983 11.394958,13.8957983 C11.394958,14.2957983 11.0689076,14.6218487 10.6655462,14.6218487 L7.84537815,14.6218487 L7.84537815,17.4252101 L7.84537815,17.4252101 Z M20.0436975,21.6 C21.0084034,21.3109244 22.1613445,20.8 22.1613445,20.0067227 L22.1613445,16.6386555 C21.6840336,16.9344538 21.1159664,17.189916 20.4739496,17.3815126 C19.0319328,17.8117647 17.1428571,18.0470588 15.1596639,18.0470588 C14.5579832,18.0470588 13.9495798,18.0235294 13.3579832,17.9798319 C13.3176471,17.9764706 13.2840336,17.9563025 13.2470588,17.9495798 C12.0537815,19.9361345 10.0336134,20.6252101 8.64201681,20.8537815 C8.9512605,21.0957983 9.44537815,21.3579832 10.2521008,21.5966387 C11.5697479,21.9865546 13.307563,22.2016807 15.1462185,22.2016807 C16.9848739,22.2084034 18.7260504,21.9932773 20.0436975,21.6 L20.0436975,21.6 Z M1.46218487,13.892437 C1.46218487,15.5630252 1.98319328,19.4588235 6.81008403,19.5260504 L7.01176471,19.5260504 C7.14957983,19.5260504 7.2907563,19.5260504 7.41176471,19.5226891 C12.2487395,19.4352941 12.7697479,15.5831933 12.7697479,13.9294118 C12.7697479,12.2756303 12.2453782,8.42016807 7.37815126,8.30588235 C7.22352941,8.30252101 7.0487395,8.29915966 6.88067227,8.29915966 L6.74957983,8.29915966 C4.77647059,8.31932773 1.46218487,9.06890756 1.46218487,13.892437 L1.46218487,13.892437 Z M10.2521008,2.08739496 C9.13613445,2.42016807 8.44033613,2.86386555 8.22521008,3.34117647 C8.42689076,3.82521008 9.1394958,4.27563025 10.2655462,4.61176471 C11.5731092,5.00168067 13.3109244,5.21680672 15.1563025,5.21680672 C17.005042,5.21680672 18.7428571,5.00168067 20.0504202,4.61176471 C21.1630252,4.2789916 21.8756303,3.83529412 22.087395,3.35798319 C21.8285714,2.74285714 20.8705882,2.32941176 20.0403361,2.08403361 C18.7327731,1.69411765 16.9915966,1.4789916 15.1428571,1.4789916 C13.297479,1.48235294 11.5596639,1.69747899 10.2521008,2.08739496 Z M14.0907563,12.3058824 C14.1747899,12.8067227 14.2352941,13.3378151 14.2352941,13.9361345 C14.2352941,14.9579832 14.0907563,15.8184874 13.8588235,16.5647059 C16.1176471,16.6957983 18.4369748,16.4840336 20.0571429,16 C21.2571429,15.6436975 21.9226891,15.102521 22.1647059,14.712605 L22.1647059,10.9411765 C21.687395,11.2369748 21.1226891,11.492437 20.4773109,11.6840336 C19.0352941,12.1142857 17.1495798,12.3495798 15.1630252,12.3495798 C14.7932773,12.3462185 14.4268908,12.3327731 14.0907563,12.3058824 L14.0907563,12.3058824 Z M8.13445378,6.73277311 C8.13445378,6.79327731 8.11428571,6.84705882 8.10084034,6.90756303 C9.64369748,7.07563025 12.5344538,7.80168067 13.7109244,10.8470588 C13.7983193,10.8302521 13.8857143,10.8268908 13.9764706,10.8436975 C14.302521,10.897479 14.8403361,10.897479 15.1596639,10.897479 C17.005042,10.897479 18.7428571,10.6823529 20.0537815,10.292437 C21.2571429,9.93277311 21.9226891,9.39495798 22.1613445,9.00504202 L22.1613445,5.28739496 C21.7042017,5.56302521 21.1462185,5.80168067 20.4739496,6.00336134 C19.0352941,6.43361345 17.1462185,6.67226891 15.1596639,6.67226891 C13.1731092,6.67226891 11.287395,6.43697479 9.84537815,6.00336134 C9.16302521,5.80168067 8.59831933,5.55294118 8.13445378,5.26722689 L8.13445378,6.73277311 L8.13445378,6.73277311 Z M20.4638655,0.699159664 C22.5613445,1.32436975 23.6235294,2.32941176 23.6235294,3.68067227 L23.6235294,20.0067227 C23.6235294,21.3579832 22.5613445,22.3630252 20.4638655,22.9882353 C19.0117647,23.4184874 17.1226891,23.6537815 15.1462185,23.6537815 C13.1697479,23.6537815 11.2840336,23.4184874 9.83193277,22.9882353 C8.29915966,22.5310924 7.34453782,21.892437 6.91428571,21.0319328 C6.90420168,21.0151261 6.90756303,20.9915966 6.90084034,20.9747899 L6.78991597,20.9747899 C5.36134454,20.9546218 0,20.4403361 0,13.8890756 C0,7.40504202 5.21680672,6.87058824 6.69915966,6.85042017 C6.69243697,6.81008403 6.67226891,6.77310924 6.67226891,6.72941176 L6.67226891,3.68067227 C6.67226891,3.46218487 6.70252101,3.25042017 6.75966387,3.04537815 L6.75966387,3.04201681 C7.06218487,2.00336134 8.09411765,1.21680672 9.82857143,0.695798319 C11.2705882,0.265546218 13.1596639,0.0302521008 15.1428571,0.0302521008 C17.1327731,0.0336134454 19.0218487,0.268907563 20.4638655,0.699159664 Z" id="Añadir-bloque-consulta_2Regular"></path>
        </g>
    </g>
</svg>

<svg width="24" height="24" viewBox="0 0 24 24" xmlns="http://www.w3.org/2000/svg"><path d="M7.845 17.425c0 .4-.326.726-.729.726a.728.728 0 01-.73-.726v-2.803H3.574a.728.728 0 01-.73-.726c0-.4.327-.726.73-.726h2.814v-2.763c0-.4.326-.726.729-.726.403 0 .73.326.73.726v2.763h2.82c.403 0 .729.326.729.726 0 .4-.326.726-.73.726h-2.82v2.803zM20.044 21.6c.964-.29 2.117-.8 2.117-1.593v-3.368a7.022 7.022 0 01-1.687.743c-1.442.43-3.331.665-5.314.665-.602 0-1.21-.023-1.802-.067-.04-.004-.074-.024-.11-.03-1.194 1.986-3.214 2.675-4.606 2.904.31.242.803.504 1.61.743 1.318.39 3.056.605 4.894.605 1.839.006 3.58-.209 4.898-.602zM1.462 13.892c0 1.671.521 5.567 5.348 5.634h.202c.138 0 .279 0 .4-.003 4.837-.088 5.358-3.94 5.358-5.594 0-1.653-.525-5.509-5.392-5.623-.154-.003-.33-.007-.497-.007H6.75c-1.974.02-5.288.77-5.288 5.593zm8.79-11.805c-1.116.333-1.812.777-2.027 1.254.202.484.914.935 2.04 1.27 1.308.39 3.046.606 4.891.606 1.849 0 3.587-.215 4.894-.605 1.113-.333 1.826-.777 2.037-1.254-.258-.615-1.216-1.029-2.047-1.274-1.307-.39-3.048-.605-4.897-.605-1.846.003-3.583.218-4.89.608zm3.839 10.219c.084.5.144 1.032.144 1.63a8.759 8.759 0 01-.376 2.629c2.259.13 4.578-.081 6.198-.565 1.2-.356 1.866-.897 2.108-1.287V10.94a6.964 6.964 0 01-1.688.743c-1.442.43-3.327.666-5.314.666-.37-.004-.736-.017-1.072-.044zM8.134 6.733c0 .06-.02.114-.033.175 1.543.168 4.433.894 5.61 3.94a.705.705 0 01.265-.004c.327.053.864.053 1.184.053 1.845 0 3.583-.215 4.894-.605 1.203-.36 1.869-.897 2.107-1.287V5.287c-.457.276-1.015.515-1.687.716-1.439.43-3.328.67-5.314.67-1.987 0-3.873-.236-5.315-.67a7.07 7.07 0 01-1.71-.736v1.466zM20.464.699c2.097.625 3.16 1.63 3.16 2.982v16.326c0 1.351-1.063 2.356-3.16 2.981-1.452.43-3.341.666-5.318.666-1.976 0-3.862-.236-5.314-.666-1.533-.457-2.487-1.096-2.918-1.956-.01-.017-.006-.04-.013-.057H6.79C5.36 20.955 0 20.44 0 13.889 0 7.405 5.217 6.871 6.7 6.85c-.008-.04-.028-.077-.028-.12V3.68c0-.218.03-.43.088-.635v-.003C7.062 2.003 8.094 1.217 9.829.696 11.27.266 13.159.03 15.143.03c1.99.004 3.879.239 5.32.67z" fill="#5CB615" fill-rule="nonzero"/></svg>
